shared/img/tn-twitter.svg

<?xml version="1.0" encoding="UTF-8"?>
<svg width="14px" height="12px" viewBox="0 0 14 12" version="1.1" xmlns="http://www.w3.org/2000/svg" xmlns:xlink="http://www.w3.org/1999/xlink">
    <!-- Generator: sketchtool 47.1 (45422) - http://www.bohemiancoding.com/sketch -->
    <title>D71EF1FC-A028-4883-BF27-B0B9B56C17CE</title>
    <desc>Created with sketchtool.</desc>
    <defs></defs>
    <g id="V4--RC-Updates" stroke="none" stroke-width="1" fill="none" fill-rule="evenodd">
        <g id="ASSETS--Pill-Icons" transform="translate(-181.000000, -199.000000)" fill-rule="nonzero" fill="#FFFFFF">
            <g id="twitter" transform="translate(181.000000, 199.000000)">
                <path d="M12.2461111,3.15 C12.2461111,3.27444444 12.2461111,3.395 12.2461111,3.51555556 C12.2461111,7.21388889 9.43055556,11.4722222 4.28944444,11.4722222 C2.76851178,11.4752484 1.27905072,11.039078 3.55271368e-15,10.2161111 C0.224632903,10.2415399 0.450608968,10.2532283 0.676666667,10.2511111 C1.93549676,10.2544994 3.15880467,9.8339445 4.14944444,9.05722222 C2.9511226,9.0350568 1.89938815,8.25367905 1.53222222,7.11277778 C1.7071287,7.14084495 1.88396745,7.15514809 2.06111111,7.15555556 C2.30899684,7.15447795 2.55582349,7.12313488 2.79611111,7.06222222 C1.49084116,6.79733109 0.553585062,5.6485415 0.556111111,4.31666667 L0.556111111,4.27777778 C0.942779856,4.49575602 1.37635967,4.61715837 1.82,4.63166667 C0.591053625,3.81104355 0.211396938,2.17664705 0.952777778,0.898333333 C2.37255506,2.64859629 4.46915506,3.71315448 6.72,3.82666667 C6.67497099,3.6157044 6.65151695,3.40070904 6.65,3.185 C6.65115078,2.03684109 7.35312772,1.00574252 8.42093232,0.583766732 C9.48873691,0.161790941 10.7059402,0.434466461 11.4916667,1.27166667 C12.1190513,1.15165257 12.7205542,0.922633952 13.2688889,0.595 C13.0631309,1.23872321 12.6324001,1.7868005 12.0555556,2.13888889 C12.6109442,2.07482723 13.15362,1.92801638 13.6655556,1.70333333 C13.2853421,2.26230419 12.8117634,2.7516689 12.2655556,3.15 L12.2461111,3.15 Z" id="Shape"></path>
            </g>
        </g>
    </g>
</svg>

<svg width="14" height="12" xmlns="http://www.w3.org/2000/svg"><path d="M12.246 3.15v.366c0 3.698-2.815 7.956-7.957 7.956A7.898 7.898 0 0 1 0 10.216c.225.026.45.037.677.035a5.604 5.604 0 0 0 3.472-1.194 2.804 2.804 0 0 1-2.617-1.944 3.045 3.045 0 0 0 1.264-.05 2.796 2.796 0 0 1-2.24-2.746v-.04c.387.219.82.34 1.264.355A2.8 2.8 0 0 1 .953.898 7.941 7.941 0 0 0 6.72 3.827a3.181 3.181 0 0 1-.07-.642 2.8 2.8 0 0 1 4.842-1.913 5.468 5.468 0 0 0 1.777-.677 2.812 2.812 0 0 1-1.213 1.544 5.604 5.604 0 0 0 1.61-.436 5.892 5.892 0 0 1-1.4 1.447h-.02z" fill-rule="nonzero" fill="#FFF"/></svg>
